X:1
T:Concerto para Piano No. 1, Op. 23 - 1° Mov.
T:Concerto para Piano No. 1, Op. 23 - 1° Mov.
T:P. I Tchaikovsky
T:Arranjo de Gabriel C. Lanzi
C:P. I Tchaikovsky
%%score { ( 1 3 ) | ( 2 4 ) }
L:1/8
Q:1/4=80
M:3/4
K:C
V:1 treble nm="Piano" snm="Pno."
V:3 treble 
V:2 bass 
V:4 bass 
V:1
!f! E CB, | A,2 [A,CEA] E CB, | A,2 [A,CEA] E CB, | A,2 [B,DA]2 [CEG]2 | [CFA]2 [C^FA]2 [D=FB]2 | %5
!mf! [EGc]2 z4 | z2 z G ED | C2 [Gce]3 d | [Gcf]3 e [GB]c | [FA]2 [Ad]3 e | [FA]3 d BA | %11
 [DFG]2 [GBd]3 e | [GBg]3 d de | [ceg]3 d ag | [GBd]2- (3[GBd]BA (3GFD | C2 [Gce]3 d | %16
 [Gcf]3 e [GB]c | [FA]2 [Ad]3 e | [Adg]3 f [Ae]f | eB e^c dA | dB cE A!<(!B | [CG]A B!<)!c de | %22
 de!>(! A3 B!>)! |!mp! [Ec]2 z4 | z2 z3/4!<(! g/<g/e/4 e/>d/d/>!<)!c/ | c2!8va(! [gc'e']3 d'!mf! | %26
 [gc'f'-]2 f'/e'/b/c'/ [gbd']/c'/b/c'/ | [fa]2 [ad']3 e' | [fa]2- [fa]/>d'/d'/>b/ b/>a/a/>g/ | %29
 [dfg]2 [gbd']3 e' | [gbg'-]2 (3g'd'^c' (3d'e'f' | [c'e'g']3 e' a'g' | [^c'e'g']3 e' _b'a' | %33
 [d'f'a']3 f' c''b' | [e'g'b']3 g' c''b' | b'2- (3b'g'^f' (3e'c'b!8va)! | (3^abg (3^fec (3B^AB | %37
 (3G^FE (3CB,^A, B,2 |[K:treble] z2 !arpeggio![B,DF_A]4- | [B,DFA]2 z!f! =A F_E | D3 B _AG | %41
 F3 d BA | ^G3 f dc | B,2 z3/2 [Bdf_a]/ !fermata![Bdfa]2 | %44
!8va(! z2 !arpeggio![bd'f'_a']2 [bd'f'a']<!fermata![bd'f'a']!8va)! | z2 z G ED | C2 [Gce]3 d | %47
 [Gcf]3 e [GB]c | [FA]2 [Ad]3 e | [FA]3 d BA | [DFG]2 [GBd]3 e | [GBg]3 d de | [Adg]3 d ag | %53
 [GBd]2- (3[GBd][Bb][Aa] (3[Gg][Ff][Dd] | c2 [ee']3 [dd'] | [ff']3 [ee'] [Bb][cc'] | %56
 [Aa]2 [dd']3 [ee'] | [gg']3 [ff'] [ee'][ff'] | eB e^c dA | dB cE A!<(!B | GA B!<)!c de | %61
 de!>(! A3 B!>)! |!mp! [Ec]2 z G ED | C2 _d3 E | F3 c _AF | D2 _A3 G | C3 G ED | C2 _d3 E | %68
 F3 c _AF | D2 _A3 G | (3CEG (3ceg (3c'e'g' | !fermata![c'e'g'c'']6 |] %72
V:2
 E, C,B,, |!ped! A,,2 [G,,C,E,]!ped-up! E, C,B,, |!ped! A,,2 [^F,,C,E,]!ped-up! E, C,B,, | %3
!ped! A,,2!ped-up!!ped! [F,,F,]2!ped-up!!ped! [E,,E,]2!ped-up! | %4
!ped! [_E,,_E,]2!ped-up!!ped! [D,,D,]2!ped-up!!ped! [G,,,F,,]2!ped-up! | %5
!ped! [C,,,C,,]2 [E,G,C]2 [G,CE]2!ped-up! |!ped! [C,,C,]2 [E,G,C]2 [G,CE]2!ped-up! | %7
!ped! [C,,C,]2 [E,G,C]2 [G,CE]2!ped-up! |!ped! [C,,C,]2 [E,G,C]2 [G,CE]2!ped-up! | %9
!ped! [C,,C,]2 [F,A,D]2 [A,DF]2!ped-up! |!ped! [C,,C,]2 [F,A,D]2 [A,DF]2!ped-up! | %11
!ped! [B,,,B,,]2 [G,B,D]2 [B,DG]2!ped-up! |!ped! [G,,,G,,]2 [G,B,D]2 [B,DG]2!ped-up! | %13
!ped! [C,,C,]2 [G,CE]2 [E,,E,]2!ped-up! |!ped! [G,,G,]2 [G,B,D]2!ped-up! z2 | %15
!ped! [C,,C,]2 [E,G,C]2 [G,CE]2!ped-up! |!ped! [E,,E,]2 [E,G,C]2 [G,CE]2!ped-up! | %17
!ped! [F,,F,]2 [F,A,D]2 [A,DF]2!ped-up! |!ped! [D,,D,]2 [F,A,D]2 [A,DF]2!ped-up! | %19
!ped! [E,B,D]2!ped-up!!ped! [A,^C]2!ped-up!!ped! [D,A,=C]2!ped-up! | %20
!ped! [G,B,]2!ped-up!!ped! [C,G,C]2!ped-up!!ped! [^F,,E,]2!ped-up! | %21
!ped! [F,,C,E,]2 [E,G,C]2 [G,CE]2!ped-up! |!ped! [D,C]4!ped-up!!ped! [G,,F,]2!ped-up! | %23
!ped! [C,,C,]2 [E,G,C]2 [G,CE]2!ped-up! |!ped! [C,,C,]2 [E,G,C]2 [G,CE]2!ped-up! | %25
!ped! [C,,C,]2 [E,G,C]2 [G,CE]2!ped-up! |!ped! [C,,C,]2 [E,G,C]2 [G,CE]2!ped-up! | %27
!ped! [C,,C,]2 [F,A,D]2 [A,DF]2!ped-up! |!ped! [C,,C,]2 [F,A,D]2 [A,DF]2!ped-up! | %29
!ped! [B,,,B,,]2 [G,B,D]2 [B,DG]2!ped-up! |!ped! [G,,,G,,]2 [G,B,D]2 [B,DG]2!ped-up! | %31
!ped! [C,,C,]2 [E,G,C]4!ped-up! |!ped! [^C,,^C,]2 [E,G,^C]4!ped-up! | %33
!ped! [D,,D,]2 [F,A,D]4!ped-up! |!ped! [^D,^F,B,^D]2!ped-up!!ped! [E,G,B,E]4!ped-up! | z6 | z6 | %37
 z4!ped! B,,,2-!ped-up! | B,,,2!ped! !arpeggio![B,,,_A,,]4-!ped-up! | [B,,,A,,]2 z4 | %40
!ped! [D,,D,]2 !arpeggio![D,F,_A,B,]2 z2!ped-up! |!ped! [F,,F,]2 !arpeggio![F,_A,B,D]2 z2!ped-up! | %42
!ped! [^A,,^G,]2 !arpeggio![_A,B,DF]2 z2!ped-up! | %43
!ped! [B,,,B,,]>[B,,D,F,_A,] [B,,D,F,A,]>[B,,D,F,A,] !fermata![B,,D,F,A,]2!ped-up! | %44
!ped!!8va(! !arpeggio![B,,D,F,B,]!arpeggio![B,DF_A] !arpeggio![B,DFA]2 [B,DFA]<!fermata![B,DFA]!ped-up!!8va)! | %45
 z6 |!ped! [C,,C,]z/[E,G,C]/ [E,G,C]z/[G,CE]/ [G,CE]2!ped-up! | %47
!ped! [C,,C,]z/[E,G,C]/ [E,G,C]2 [G,CE]2!ped-up! | %48
!ped! [C,,C,]z/[F,A,D]/ [F,A,D]z/[A,DF]/ [A,DF]2!ped-up! | %49
!ped! [C,,C,]z/[F,A,D]/ [F,A,D]2 [A,DF]2!ped-up! | %50
!ped! [B,,,B,,]z/[G,B,D]/ [G,B,D]z/[B,DG]/ [B,DG]2!ped-up! | %51
!ped! [G,,,G,,]z/[G,B,D]/ [G,B,D]2 [B,DG]2!ped-up! | %52
!ped! [C,,C,]z/[G,CE]/ [G,CE]2 [E,,E,]2!ped-up! | %53
!ped! [G,,G,]z/[G,B,D]/ [G,B,D]2!ped-up! (3[G,,G,][F,,F,][D,,D,] | %54
!ped! [C,,C,] z/ [E,G,C]/ [E,G,C]z/[G,CE]/ [G,CE]2!ped-up! | %55
!ped! [E,,E,]z/[E,G,C]/ [E,G,C]2 [G,CE]2!ped-up! | %56
!ped! [F,,F,]z/[F,A,D]/ [F,A,D]z/[A,DF]/ [A,DF]2!ped-up! | %57
!ped! [D,,D,]z/[F,A,D]/ [F,A,D]2 [A,DF]2!ped-up! | %58
!ped! E,2!ped-up!!ped! A,2!ped-up!!ped! D,2!ped-up! | %59
!ped! G,2!ped-up!!ped! [C,G,C]2!ped-up!!ped! [^F,,E,]2 | %60
!ped! [G,,C,E,] z/ [E,G,C]/ [E,G,C]z/[G,CE]/ [G,CE]2!ped-up! | %61
!ped! [D,C]4!ped-up!!ped! [G,,F,]2!ped-up! |!ped! [C,,C,]2 [E,G,C]2!ped-up! z2 | %63
!ped! [C,,C,]2 [E,G,_B,]2 [G,B,_D]2!ped-up! |!ped! [C,,C,]2 [F,_A,C]2 [A,CF]2!ped-up! | %65
!ped! [C,,C,]2 [F,B,D]2 [B,DF]2!ped-up! |!ped! [C,,C,]2 [E,G,C]2 z2!ped-up! | %67
!ped! [C,,C,]2 [E,G,_B,]2!ped-up! [G,B,_D]2 |!ped! [C,,C,]2 [F,_A,C]2 [A,CF]2!ped-up! | %69
!ped! [C,,C,]2 [F,B,D]2 [B,DF]2!ped-up! |!ped! (3z G,E, (3C,G,,E,, (3C,,G,,,E,,,!ped-up! | %71
!ped! !fermata![C,,,C,,]6!ped-up! |] %72
V:3
 x3 | x6 | x6 | x6 | x6 | x6 | x6 | x6 | x6 | x6 | x6 | x6 | x6 | x6 | x6 | x6 | x6 | x6 | x6 | %19
 ^G2 =G2 ^F2 | F2 E2 C2 | x6 | ^F4 =F2 | x6 | x6 | x2!8va(! x4 | x6 | x6 | x6 | x6 | x6 | x6 | x6 | %33
 x6 | x6 | x6!8va)! | x6 | x6 |[K:treble] x6 | x6 | x6 | x6 | x6 | x6 |!8va(! x6!8va)! | x6 | x6 | %47
 x6 | x6 | x6 | x6 | x6 | x6 | x6 | x6 | x6 | x6 | x6 | ^G2 =G2 ^F2 | F2 E2 C2 | x6 | ^F4 =F2 | %62
 x6 | x6 | x6 | x6 | x6 | x6 | x6 | x6 | x6 | x6 |] %72
V:4
 x3 | x6 | x6 | x6 | x6 | x6 | x6 | x6 | x6 | x6 | x6 | x6 | x6 | x6 | x6 | x6 | x6 | x6 | x6 | %19
 x6 | x6 | x6 | x6 | x6 | x6 | x6 | x6 | x6 | x6 | x6 | x6 | x6 | x6 | x6 | x6 | x6 | x6 | x6 | %38
 x6 | x6 | x6 | x6 | x6 | x6 |!8va(! x6!8va)! | x6 | x6 | x6 | x6 | x6 | x6 | x6 | x6 | x6 | x6 | %55
 x6 | x6 | x6 | [B,D]^C/D/ CA, [A,=C]B,/C/ | B,G, x4 | x6 | x6 | x6 | x6 | x6 | x6 | x6 | x6 | x6 | %69
 x6 | x6 | x6 |] %72

